X:21063 
T:FULL MOON, The 
B:DMI.0322
Z:Nordberg/Black
N:Another one of many DMI tunes that might sound better
as a modal tune (= C's natural). I'll leave the ABC as
per the DMI version, but you can try the modal version
by replacing D with G in the K: field.
R:jig
%Q:1/4=160
M:6/8
L:1/8
K:D
g|fed cAA|fed cBA|FGA ABG|FGA A2g|
fed cAA|fed cAG|FDF GAG|FDC D2:|
G|FGA ABc|dfd cAG|cAA A2G|cAA A2g|
fed cAA|fed cAG|FDF GAG|FDC D2:|

%%%

